app/dist/common/images/datron-ag.svg

<svg height="18" viewBox="0 0 18 18" width="18" xmlns="http://www.w3.org/2000/svg"><path d="m0 0h18v18h-18z" fill="#f0f3fa"/><path d="m10.54 6h-5.54v6h5.54c1.43 0 2.46-.5 2.46-2.09v-1.8c0-1.61-1.02-2.11-2.46-2.11zm-.74 5h-2.8v-4h2.76c.74 0 1.24.67 1.24 1.43v1.07c0 .94-.5 1.5-1.2 1.5z" fill="#2a2a2a"/><path d="m13 4h-8v1h8zm0 9h-8v1h8z" fill="#006ba2"/></svg>

<!-- by TradingView --><svg width="18" height="18" viewBox="0 0 18 18" xmlns="http://www.w3.org/2000/svg"><path fill="#F0F3FA" d="M0 0h18v18H0z"/><path d="M10.54 6H5v6h5.54c1.43 0 2.46-.5 2.46-2.09v-1.8C13 6.5 11.98 6 10.54 6Zm-.74 5H7V7h2.76C10.5 7 11 7.67 11 8.43V9.5c0 .94-.5 1.5-1.2 1.5Z" fill="#2A2A2A"/><path d="M13 4H5v1h8V4ZM13 13H5v1h8v-1Z" fill="#006BA2"/></svg>
